route_02/Equinor_US_CERAWeek_Banner_300x250/images/copy2a.svg

<svg width="148" height="17" viewBox="0 0 148 17" fill="none" xmlns="http://www.w3.org/2000/svg">
<path d="M7.704 0.117288C7.866 0.117288 7.974 0.225289 7.974 0.387288V1.39529C7.974 1.55729 7.866 1.66529 7.704 1.66529H1.62V5.84129H6.282C6.444 5.84129 6.552 5.94929 6.552 6.11129V7.11929C6.552 7.28129 6.444 7.38929 6.282 7.38929H1.62V12.4473C1.62 12.6093 1.512 12.7173 1.35 12.7173H0.27C0.108 12.7173 0 12.6093 0 12.4473V0.387288C0 0.225289 0.108 0.117288 0.27 0.117288H7.704Z" fill="#243746"/>
<path d="M14.9993 4.90529C15.0533 5.06729 14.9993 5.19329 14.8373 5.26529L10.7153 6.97529V12.4473C10.7153 12.6093 10.6073 12.7173 10.4453 12.7173H9.43734C9.27534 12.7173 9.16734 12.6093 9.16734 12.4473V4.68929C9.16734 4.54529 9.23934 4.43729 9.38334 4.38329L10.4093 4.00529C10.5893 3.93329 10.7153 4.02329 10.7153 4.22129V5.46329L14.3153 3.96929C14.4773 3.89729 14.6033 3.95129 14.6753 4.11329L14.9993 4.90529Z" fill="#243746"/>
<path d="M19.9305 12.9333C17.3385 12.9333 15.4845 11.0073 15.4845 8.39729C15.4845 5.78729 17.3385 3.86129 19.9305 3.86129C22.5225 3.86129 24.3585 5.78729 24.3585 8.39729C24.3585 11.0073 22.5225 12.9333 19.9305 12.9333ZM19.9305 11.4213C21.6945 11.4213 22.7745 10.0893 22.7745 8.39729C22.7745 6.70529 21.6945 5.37329 19.9305 5.37329C18.1485 5.37329 17.0685 6.70529 17.0685 8.39729C17.0685 10.0893 18.1485 11.4213 19.9305 11.4213Z" fill="#243746"/>
<path d="M26.3215 12.7173C26.1595 12.7173 26.0515 12.6093 26.0515 12.4473V4.68929C26.0515 4.54529 26.1235 4.43729 26.2675 4.38329L27.2935 4.00529C27.4735 3.93329 27.5995 4.02329 27.5995 4.22129V5.13929C28.1755 4.29329 29.0935 3.86129 30.0655 3.86129C31.0375 3.86129 31.9735 4.32929 32.5135 5.33729C33.2515 4.18529 34.3315 3.86129 35.2675 3.86129C37.1575 3.86129 38.3995 4.99529 38.3995 7.55129V12.4473C38.3995 12.6093 38.2915 12.7173 38.1295 12.7173H37.1215C36.9595 12.7173 36.8515 12.6093 36.8515 12.4473V7.74929C36.8515 6.23729 36.1495 5.39129 34.9255 5.39129C33.7015 5.39129 32.9995 6.23729 32.9995 7.74929V12.4473C32.9995 12.6093 32.8915 12.7173 32.7295 12.7173H31.7215C31.5595 12.7173 31.4515 12.6093 31.4515 12.4473V7.74929C31.4515 6.23729 30.7495 5.39129 29.5255 5.39129C28.3015 5.39129 27.5995 6.23729 27.5995 7.74929V12.4473C27.5995 12.6093 27.4915 12.7173 27.3295 12.7173H26.3215Z" fill="#243746"/>
<path d="M48.3944 12.9333C45.8024 12.9333 43.9484 11.0073 43.9484 8.39729C43.9484 5.78729 45.8024 3.86129 48.3944 3.86129C50.9864 3.86129 52.8224 5.78729 52.8224 8.39729C52.8224 11.0073 50.9864 12.9333 48.3944 12.9333ZM48.3944 11.4213C50.1584 11.4213 51.2384 10.0893 51.2384 8.39729C51.2384 6.70529 50.1584 5.37329 48.3944 5.37329C46.6124 5.37329 45.5324 6.70529 45.5324 8.39729C45.5324 10.0893 46.6124 11.4213 48.3944 11.4213Z" fill="#243746"/>
<path d="M54.7674 3.08729C54.5874 3.14129 54.4614 3.06929 54.4614 2.87129V1.59329C54.4614 1.44929 54.5334 1.34129 54.6774 1.28729L55.8114 0.855288C55.9914 0.783288 56.1174 0.873288 56.1174 1.07129V2.40329C56.1174 2.54729 56.0454 2.65529 55.9014 2.70929L54.7674 3.08729ZM54.7854 12.7173C54.6234 12.7173 54.5154 12.6093 54.5154 12.4473V4.68929C54.5154 4.54529 54.5874 4.43729 54.7314 4.38329L55.7574 4.00529C55.9374 3.93329 56.0634 4.02329 56.0634 4.22129V12.4473C56.0634 12.6093 55.9554 12.7173 55.7934 12.7173H54.7854Z" fill="#243746"/>
<path d="M58.3144 12.7173C58.1524 12.7173 58.0444 12.6093 58.0444 12.4473V0.729289C58.0444 0.585288 58.1164 0.477289 58.2604 0.423288L59.2864 0.0452879C59.4664 -0.0267112 59.5924 0.0632887 59.5924 0.261288V12.4473C59.5924 12.6093 59.4844 12.7173 59.3224 12.7173H58.3144Z" fill="#243746"/>
<path d="M69.5738 12.9333C66.8378 12.9333 65.2538 10.8453 65.2538 8.37929C65.2538 5.62529 67.3058 3.86129 69.6638 3.86129C70.8518 3.86129 71.9498 4.31129 72.5078 5.06729V4.68929C72.5078 4.54529 72.5798 4.43729 72.7238 4.38329L73.7498 4.00529C73.9298 3.93329 74.0558 4.00529 74.0558 4.20329V12.4473C74.0558 12.6093 73.9478 12.7173 73.7858 12.7173H72.7778C72.6158 12.7173 72.5078 12.6093 72.5078 12.4473V11.7453C72.0038 12.3753 70.8158 12.9333 69.5738 12.9333ZM69.6818 11.4033C71.2838 11.4033 72.5258 10.3773 72.5258 8.37929C72.5258 6.39929 71.2838 5.37329 69.6818 5.37329C68.1518 5.37329 66.8378 6.39929 66.8378 8.37929C66.8378 10.3593 68.1518 11.4033 69.6818 11.4033Z" fill="#243746"/>
<path d="M76.3017 12.7173C76.1397 12.7173 76.0317 12.6093 76.0317 12.4473V4.68929C76.0317 4.54529 76.1037 4.43729 76.2477 4.38329L77.2737 4.00529C77.4537 3.93329 77.5797 4.02329 77.5797 4.22129V5.13929C78.2457 4.16729 79.2717 3.86129 80.2077 3.86129C82.1517 3.86129 83.6997 5.17529 83.6997 7.73129V12.4473C83.6997 12.6093 83.5917 12.7173 83.4297 12.7173H82.4217C82.2597 12.7173 82.1517 12.6093 82.1517 12.4473V7.78529C82.1517 6.23729 81.2517 5.39129 79.9197 5.39129C78.5697 5.39129 77.5797 6.25529 77.5797 7.78529V12.4473C77.5797 12.6093 77.4717 12.7173 77.3097 12.7173H76.3017Z" fill="#243746"/>
<path d="M89.6044 12.9333C86.8684 12.9333 85.2844 10.8453 85.2844 8.37929C85.2844 5.62529 87.3364 3.86129 89.6944 3.86129C90.8824 3.86129 91.9804 4.31129 92.5384 5.06729V0.711288C92.5384 0.567289 92.6104 0.459288 92.7544 0.405289L93.7804 0.0272881C93.9604 -0.044712 94.0864 0.0272881 94.0864 0.225289V12.4473C94.0864 12.6093 93.9784 12.7173 93.8164 12.7173H92.8084C92.6464 12.7173 92.5384 12.6093 92.5384 12.4473V11.7453C92.0344 12.3753 90.8464 12.9333 89.6044 12.9333ZM89.7124 11.4033C91.3144 11.4033 92.5564 10.3773 92.5564 8.37929C92.5564 6.39929 91.3144 5.37329 89.7124 5.37329C88.1824 5.37329 86.8684 6.39929 86.8684 8.37929C86.8684 10.3593 88.1824 11.4033 89.7124 11.4033Z" fill="#243746"/>
<path d="M104.009 16.5333C102.731 16.5333 101.453 16.2273 100.211 15.2913C100.085 15.1833 100.067 15.0573 100.139 14.9133L100.661 14.0133C100.751 13.8513 100.877 13.8333 101.039 13.9413C101.885 14.5893 102.929 15.0213 104.027 15.0213C105.953 15.0213 106.997 13.7973 106.997 11.8533V11.7453C106.529 12.3213 105.431 12.9333 104.009 12.9333C101.363 12.9333 99.7428 10.8453 99.7428 8.39729C99.7428 5.62529 101.795 3.86129 104.153 3.86129C105.341 3.86129 106.439 4.31129 106.997 5.06729V4.68929C106.997 4.54529 107.069 4.43729 107.213 4.38329L108.239 4.00529C108.419 3.93329 108.545 4.00529 108.545 4.20329V11.5293C108.545 15.0213 106.781 16.5333 104.009 16.5333ZM104.189 11.4033C105.755 11.4033 107.015 10.3773 107.015 8.37929C107.015 6.39929 105.755 5.37329 104.189 5.37329C102.623 5.37329 101.327 6.39929 101.327 8.37929C101.327 10.3593 102.623 11.4033 104.189 11.4033Z" fill="#243746"/>
<path d="M114.553 12.9333C111.817 12.9333 110.233 10.8453 110.233 8.37929C110.233 5.62529 112.285 3.86129 114.643 3.86129C115.831 3.86129 116.929 4.31129 117.487 5.06729V4.68929C117.487 4.54529 117.559 4.43729 117.703 4.38329L118.729 4.00529C118.909 3.93329 119.035 4.00529 119.035 4.20329V12.4473C119.035 12.6093 118.927 12.7173 118.765 12.7173H117.757C117.595 12.7173 117.487 12.6093 117.487 12.4473V11.7453C116.983 12.3753 115.795 12.9333 114.553 12.9333ZM114.661 11.4033C116.263 11.4033 117.505 10.3773 117.505 8.37929C117.505 6.39929 116.263 5.37329 114.661 5.37329C113.131 5.37329 111.817 6.39929 111.817 8.37929C111.817 10.3593 113.131 11.4033 114.661 11.4033Z" fill="#243746"/>
<path d="M124.035 12.9333C122.757 12.9333 121.461 12.5193 120.687 11.6193C120.579 11.5113 120.597 11.3673 120.687 11.2413L121.263 10.5033C121.371 10.3593 121.497 10.3593 121.641 10.4673C122.181 10.9353 122.901 11.4213 124.071 11.4213C125.187 11.4213 125.799 11.0613 125.799 10.3593C125.799 9.63929 125.169 9.35129 123.999 9.06329C122.541 8.70329 120.939 8.27129 120.939 6.50729C120.939 4.95929 122.163 3.86129 124.089 3.86129C125.331 3.86129 126.213 4.29329 126.789 4.76129C126.915 4.88729 126.915 4.99529 126.807 5.13929L126.231 5.85929C126.123 5.98529 125.997 6.02129 125.853 5.91329C125.439 5.62529 124.863 5.37329 124.125 5.37329C123.243 5.37329 122.487 5.71529 122.487 6.41729C122.487 7.06529 123.135 7.31729 124.359 7.60529C126.141 8.01929 127.311 8.68529 127.311 10.2513C127.311 12.4473 125.349 12.9333 124.035 12.9333Z" fill="#243746"/>
<path d="M137.349 12.3033C137.403 12.4473 137.349 12.5913 137.169 12.6813C136.773 12.8613 136.431 12.9333 136.053 12.9333C134.055 12.9333 133.587 11.6373 133.587 10.0893V5.48129H132.453C132.291 5.48129 132.183 5.37329 132.183 5.21129V4.34729C132.183 4.18529 132.291 4.07729 132.453 4.07729H133.587V2.70929C133.587 2.56529 133.659 2.45729 133.803 2.40329L134.829 2.02529C135.009 1.95329 135.135 2.04329 135.135 2.24129V4.07729H136.683C136.845 4.07729 136.953 4.18529 136.953 4.34729V5.21129C136.953 5.37329 136.845 5.48129 136.683 5.48129H135.135V10.1073C135.135 10.8453 135.405 11.3853 136.179 11.3853C136.341 11.3853 136.503 11.3493 136.701 11.2773C136.881 11.2233 137.007 11.2593 137.061 11.4393L137.349 12.3033Z" fill="#243746"/>
<path d="M142.681 12.9333C140.089 12.9333 138.235 11.0073 138.235 8.39729C138.235 5.78729 140.089 3.86129 142.681 3.86129C145.273 3.86129 147.109 5.78729 147.109 8.39729C147.109 11.0073 145.273 12.9333 142.681 12.9333ZM142.681 11.4213C144.445 11.4213 145.525 10.0893 145.525 8.39729C145.525 6.70529 144.445 5.37329 142.681 5.37329C140.899 5.37329 139.819 6.70529 139.819 8.39729C139.819 10.0893 140.899 11.4213 142.681 11.4213Z" fill="#243746"/>
</svg>

<?xml version="1.0" encoding="UTF-8"?><svg id="Layer_2" xmlns="http://www.w3.org/2000/svg" width="127.31" height="16.53" viewBox="0 0 127.31 16.53"><defs><style>.cls-1{fill:#243746;}</style></defs><g id="Layer_1-2"><path class="cls-1" d="M7.7.12c.16,0,.27.11.27.27v1.01c0,.16-.11.27-.27.27H1.62v4.18h4.66c.16,0,.27.11.27.27v1.01c0,.16-.11.27-.27.27H1.62v5.06c0,.16-.11.27-.27.27H.27c-.16,0-.27-.11-.27-.27V.39C0,.23.11.12.27.12h7.43Z"/><path class="cls-1" d="M15,4.91c.05.16,0,.29-.16.36l-4.12,1.71v5.47c0,.16-.11.27-.27.27h-1.01c-.16,0-.27-.11-.27-.27v-7.76c0-.14.07-.25.22-.31l1.03-.38c.18-.07.31.02.31.22v1.24l3.6-1.49c.16-.07.29-.02.36.14l.32.79Z"/><path class="cls-1" d="M19.93,12.93c-2.59,0-4.45-1.93-4.45-4.54s1.85-4.54,4.45-4.54,4.43,1.93,4.43,4.54-1.84,4.54-4.43,4.54ZM19.93,11.42c1.76,0,2.84-1.33,2.84-3.02s-1.08-3.02-2.84-3.02-2.86,1.33-2.86,3.02,1.08,3.02,2.86,3.02Z"/><path class="cls-1" d="M26.32,12.72c-.16,0-.27-.11-.27-.27v-7.76c0-.14.07-.25.22-.31l1.03-.38c.18-.07.31.02.31.22v.92c.58-.85,1.49-1.28,2.47-1.28s1.91.47,2.45,1.48c.74-1.15,1.82-1.48,2.75-1.48,1.89,0,3.13,1.13,3.13,3.69v4.9c0,.16-.11.27-.27.27h-1.01c-.16,0-.27-.11-.27-.27v-4.7c0-1.51-.7-2.36-1.93-2.36s-1.93.85-1.93,2.36v4.7c0,.16-.11.27-.27.27h-1.01c-.16,0-.27-.11-.27-.27v-4.7c0-1.51-.7-2.36-1.93-2.36s-1.93.85-1.93,2.36v4.7c0,.16-.11.27-.27.27h-1.01Z"/><path class="cls-1" d="M48.39,12.93c-2.59,0-4.45-1.93-4.45-4.54s1.85-4.54,4.45-4.54,4.43,1.93,4.43,4.54-1.84,4.54-4.43,4.54ZM48.39,11.42c1.76,0,2.84-1.33,2.84-3.02s-1.08-3.02-2.84-3.02-2.86,1.33-2.86,3.02,1.08,3.02,2.86,3.02Z"/><path class="cls-1" d="M54.77,3.09c-.18.05-.31-.02-.31-.22v-1.28c0-.14.07-.25.22-.31l1.13-.43c.18-.07.31.02.31.22v1.33c0,.14-.07.25-.22.31l-1.13.38ZM54.79,12.72c-.16,0-.27-.11-.27-.27v-7.76c0-.14.07-.25.22-.31l1.03-.38c.18-.07.31.02.31.22v8.23c0,.16-.11.27-.27.27h-1.01Z"/><path class="cls-1" d="M58.31,12.72c-.16,0-.27-.11-.27-.27V.73c0-.14.07-.25.22-.31l1.03-.38c.18-.07.31.02.31.22v12.19c0,.16-.11.27-.27.27h-1.01Z"/><path class="cls-1" d="M69.57,12.93c-2.74,0-4.32-2.09-4.32-4.55,0-2.75,2.05-4.52,4.41-4.52,1.19,0,2.29.45,2.84,1.21v-.38c0-.14.07-.25.22-.31l1.03-.38c.18-.07.31,0,.31.2v8.24c0,.16-.11.27-.27.27h-1.01c-.16,0-.27-.11-.27-.27v-.7c-.5.63-1.69,1.19-2.93,1.19ZM69.68,11.4c1.6,0,2.84-1.03,2.84-3.02s-1.24-3.01-2.84-3.01-2.84,1.03-2.84,3.01,1.31,3.02,2.84,3.02Z"/><path class="cls-1" d="M76.3,12.72c-.16,0-.27-.11-.27-.27v-7.76c0-.14.07-.25.22-.31l1.03-.38c.18-.07.31.02.31.22v.92c.67-.97,1.69-1.28,2.63-1.28,1.94,0,3.49,1.31,3.49,3.87v4.72c0,.16-.11.27-.27.27h-1.01c-.16,0-.27-.11-.27-.27v-4.66c0-1.55-.9-2.39-2.23-2.39s-2.34.86-2.34,2.39v4.66c0,.16-.11.27-.27.27h-1.01Z"/><path class="cls-1" d="M89.6,12.93c-2.74,0-4.32-2.09-4.32-4.55,0-2.75,2.05-4.52,4.41-4.52,1.19,0,2.29.45,2.84,1.21V.71c0-.14.07-.25.22-.31l1.03-.38c.18-.07.31,0,.31.2v12.22c0,.16-.11.27-.27.27h-1.01c-.16,0-.27-.11-.27-.27v-.7c-.5.63-1.69,1.19-2.93,1.19ZM89.71,11.4c1.6,0,2.84-1.03,2.84-3.02s-1.24-3.01-2.84-3.01-2.84,1.03-2.84,3.01,1.31,3.02,2.84,3.02Z"/><path class="cls-1" d="M104.01,16.53c-1.28,0-2.56-.31-3.8-1.24-.13-.11-.14-.23-.07-.38l.52-.9c.09-.16.22-.18.38-.07.85.65,1.89,1.08,2.99,1.08,1.93,0,2.97-1.22,2.97-3.17v-.11c-.47.58-1.57,1.19-2.99,1.19-2.65,0-4.27-2.09-4.27-4.54,0-2.77,2.05-4.54,4.41-4.54,1.19,0,2.29.45,2.84,1.21v-.38c0-.14.07-.25.22-.31l1.03-.38c.18-.07.31,0,.31.2v7.33c0,3.49-1.76,5-4.54,5ZM104.19,11.4c1.57,0,2.83-1.03,2.83-3.02s-1.26-3.01-2.83-3.01-2.86,1.03-2.86,3.01,1.3,3.02,2.86,3.02Z"/><path class="cls-1" d="M114.55,12.93c-2.74,0-4.32-2.09-4.32-4.55,0-2.75,2.05-4.52,4.41-4.52,1.19,0,2.29.45,2.84,1.21v-.38c0-.14.07-.25.22-.31l1.03-.38c.18-.07.31,0,.31.2v8.24c0,.16-.11.27-.27.27h-1.01c-.16,0-.27-.11-.27-.27v-.7c-.5.63-1.69,1.19-2.93,1.19ZM114.66,11.4c1.6,0,2.84-1.03,2.84-3.02s-1.24-3.01-2.84-3.01-2.84,1.03-2.84,3.01,1.31,3.02,2.84,3.02Z"/><path class="cls-1" d="M124.04,12.93c-1.28,0-2.57-.41-3.35-1.31-.11-.11-.09-.25,0-.38l.58-.74c.11-.14.23-.14.38-.04.54.47,1.26.95,2.43.95s1.73-.36,1.73-1.06-.63-1.01-1.8-1.3c-1.46-.36-3.06-.79-3.06-2.56,0-1.55,1.22-2.65,3.15-2.65,1.24,0,2.12.43,2.7.9.13.13.13.23.02.38l-.58.72c-.11.13-.23.16-.38.05-.41-.29-.99-.54-1.73-.54-.88,0-1.64.34-1.64,1.04,0,.65.65.9,1.87,1.19,1.78.41,2.95,1.08,2.95,2.65,0,2.2-1.96,2.68-3.28,2.68Z"/></g></svg>
